X:1
T:Title
%%score { 1 | 2 }
L:1/8
M:4/4
K:G
V:1 treble nm="Grand Piano"
V:2 bass 
V:1
 z4 z2[Q:1/4=116] D2 | G2 G2 G2 [FA]2 | B2 d2 d2 e>d | B2 B2 B B3 |[M:3/4] [FA]6 |[M:1/4] D2 | %6
[M:4/4] G2 G2 G2 [FA]2 | B2 d2 d2 e>d | B2 B2 [FA] [FA]3 |[M:3/4] G6 |[M:1/4] B2 | %11
[M:4/4] d2 d2 B2 d2 | G2 B2 D2 D2 | G2 B2 d2 B2 |[M:3/4] [FA]6 |[M:1/4] D2 | %16
[M:4/4] G2 G2 G2 [DFA]2 | [DGB]2 [DGd]2 [DGd]2 [Ge]>[Gd] | [GB]2 [GB]2 [FA] [FA]3 |[M:3/4] G6 | %20
[M:1/4] B>B |[M:4/4] d2 d2 d B3 | d6 [DGB]>[CFA] | [B,DG]2 [B,DG]2 [B,DG] [DGB]3 |[M:3/4] [CFA]6 | %25
[M:1/4] [B,D]2 |[M:4/4] [B,DG]2 [B,DG]2 [B,DG]2 [DFA]2 | [DGB]2 [DGd]2 [DGd]2 [Ge]>[Gd] | %28
 [GB]2 [GB]2 [FA] [FA]3 |[M:7/4] [DG]6 z2 z2 z4 |] %30
V:2
 z4 z2 [G,B,]2 | [G,B,D]2 [G,B,D]2 [G,B,D]2 [D,D]2 | [G,DG]2 [G,B,G]2 [G,B,G]2 [G,CG]>[G,B,G] | %3
 [G,DG]2 [G,DG]2 [G,DG] [G,DG]3 |[M:3/4][K:bass] [D,C]6 |[M:1/4] [G,B,]2 | %6
[M:4/4] [G,B,D]2 [G,B,D]2 [G,B,D]2 [D,D]2 | [G,DG]2 [G,B,G]2 [G,B,G]2 [G,CG]>[G,B,G] | %8
 [G,DG]2 [G,DG]2[K:bass] [D,D] [D,C]3 |[M:3/4][K:treble] [G,B,D]6 |[M:1/4] [G,DG]2 | %11
[M:4/4] [G,B,G]2 [G,B,G]2 [G,DG]2 [G,B,G]2 | [G,B,D]2 [G,DG]2 [G,B,]2 [G,B,]2 | %13
 [G,B,D]2 [G,DG]2 [G,B,G]2 [G,DG]2 |[M:3/4][K:bass] [D,D]6 |[M:1/4] [G,B,]2 | %16
[M:4/4] [G,B,D]2 [G,B,D]2 [G,B,D]2 D,2 | G,2 B,,2 B,,2 [C,C]>[D,B,] | [D,D]2 [D,D]2 [D,D] [D,C]3 | %19
[M:3/4][K:treble] [G,B,D]6 |[M:1/4] [G,DG]>[G,DG] |[M:4/4] [G,B,G]2 [G,B,G]2 [G,B,G] [G,DG]3 | %22
 [G,B,G]6[K:bass] D,>D, | G,2 G,2 G, G,3 |[M:3/4] D,6 |[M:1/4] G,2 |[M:4/4] G,2 G,2 G,2 D,2 | %27
 G,2 B,,2 B,,2 [C,C]>[D,B,] | [D,D]2 [D,D]2 [D,D] [D,C]3 |[M:7/4] [G,B,]6 z2 z2 z4 |] %30

